X:1     %Music
T:Gossip Joan
B:Singing Together, Summer 1951, BBC Publications
F:http://www.folkinfo.org/songs
N:Clarendon Song Book I (Oxford University Press)
L:1/8     %
K:E
B2 |e2 E2 G2 A2 |B6 AG |A2 F2 B,2 A2 | A2 G2 z2
w:Good mor-row Gos-sip Joan, Where_ have you been a-walk-ing? *
 (AB) |c2 c2 c2 (BA) |(BABc B2) AG |A2 A2 A2 GF | (GFGA G2) 
w: I_ have for you at_ home____ I_ have for you at_ home____ 
e2 |B2 e2 B2 e2 |(fe dc B2 A2) |G4 F4 | E6 z2 |]
w:A bud-get full of talk-----ing, Gos-sip Joan 